X: 90
T: POLKA: Maids of Ardagh
T: Toormore No. 2 / Tuar Mór No. 2
C: C: Trad.; S: De Danann; Johnny O'Leary
C: Set Leaders: Sophie, Anton, Tania
Z: [Unedited]; Musicalbison at The Session
N: https://thesession.org/members/26966/sets/99393
R: Polka
M: 2/4
L: 1/8
Q: 1/4=140
K: Amix
F>A BA|de f2|fe/f/ gc|ed BA|
F>A BA|de f2|fe/f/ gc|ed d2:||
ef/e/ ce|fe a2|ef/e/ ce|fe c/B/A|
ef/e/ ce|fe a2|ef/e/ dB|BA A2:||

